brandFactory_export/1.Light/Ratón_1Light.svg

<?xml version="1.0" encoding="UTF-8"?>
<svg width="24px" height="24px" viewBox="0 0 24 24" version="1.1" xmlns="http://www.w3.org/2000/svg" xmlns:xlink="http://www.w3.org/1999/xlink">
    <title>1.Light/Ratón_1Light</title>
    <g id="Symbols" stroke="none" stroke-width="1" fill="none" fill-rule="evenodd">
        <g id="1.Light/Ratón_1Light" fill="#5CB615" fill-rule="nonzero">
            <path d="M5.34285714,0.0168067227 C5.53109244,0.0168067227 5.68235294,0.168067227 5.68235294,0.356302521 C5.68235294,0.890756303 5.92436975,1.32773109 6.39831933,1.65042017 C6.91260504,2 7.66218487,2.18487395 8.56638655,2.18487395 L10.9361345,2.18487395 C12.1361345,2.18487395 12.7109244,2.82016807 12.9831933,3.35462185 C13.2438268,3.86968326 13.2667396,4.38188056 13.2687224,4.47613897 L13.2695569,5.27299979 C17.3501325,5.40077556 19.5042017,7.64744533 19.5042017,11.7915966 L19.5042017,17.1159664 C19.5042017,19.3647059 18.9932773,20.9747899 17.9411765,22.0336134 C16.8621849,23.1159664 15.2151261,23.6403361 12.8957983,23.6403361 C8.57310924,23.6403361 6.28739496,21.3848739 6.28739496,17.1159664 L6.28641681,13.0904496 C6.28282501,13.0616712 6.28299935,13.0319005 6.28739496,13.0016807 L6.28739496,11.7915966 C6.28739496,7.62466967 8.46520612,5.37613812 12.589493,5.27108511 L12.589916,4.4907563 C12.589916,4.48739496 12.5831933,4.05714286 12.3680672,3.64033613 C12.0991597,3.12268908 11.6151261,2.8605042 10.9361345,2.8605042 L8.56638655,2.8605042 C6.40168067,2.8605042 5.00336134,1.8789916 5.00336134,0.356302521 C5.00336134,0.168067227 5.15462185,0.0168067227 5.34285714,0.0168067227 Z M18.8283613,13.4288067 L19.205042,13.3815126 C17.1478992,13.6672269 15.0436975,13.8084034 12.9596639,13.8084034 L12.8252101,13.8084034 C10.8708825,13.8084034 8.90177518,13.6812972 6.96223981,13.4326287 L6.96302521,17.1193277 C6.96302521,20.9983193 8.95966387,22.9647059 12.8957983,22.9647059 C15.0268908,22.9647059 16.5193277,22.5042017 17.4605042,21.5563025 C18.3815126,20.6285714 18.8285714,19.1764706 18.8285714,17.1159664 L18.8283613,13.4288067 Z M12.8957983,5.94621849 C8.95966387,5.94621849 6.96302521,7.91260504 6.96302521,11.7915966 L6.96236134,12.7498067 L7.54971213,12.8247838 C9.31891614,13.0315212 11.1114046,13.1327731 12.8890756,13.1327731 L12.9563025,13.1327731 C14.9143014,13.1327731 16.8875759,13.0044577 18.8295237,12.7507396 L18.8285714,11.7915966 C18.8252101,7.91260504 16.8285714,5.94621849 12.8957983,5.94621849 Z M12.8957983,7.61008403 C13.0840336,7.61008403 13.2352941,7.76134454 13.2352941,7.94957983 L13.2352941,11.502521 C13.2319328,11.6907563 13.0806723,11.8420168 12.8957983,11.8420168 C12.707563,11.8420168 12.5563025,11.6907563 12.5563025,11.502521 L12.5563025,7.94957983 C12.5563025,7.76134454 12.707563,7.61008403 12.8957983,7.61008403 Z" id="Ratón_1Light"></path>
        </g>
    </g>
</svg>

<svg width="24" height="24" viewBox="0 0 24 24" xmlns="http://www.w3.org/2000/svg"><path d="M5.343.017c.188 0 .34.151.34.34 0 .534.241.97.715 1.293.515.35 1.264.535 2.168.535h2.37c1.2 0 1.775.635 2.047 1.17a2.79 2.79 0 01.286 1.121v.797c4.081.128 6.235 2.374 6.235 6.519v5.324c0 2.249-.51 3.859-1.563 4.918-1.079 1.082-2.726 1.606-5.045 1.606-4.323 0-6.609-2.255-6.609-6.524V13.09a.331.331 0 010-.088v-1.21c0-4.167 2.178-6.416 6.302-6.52V4.49c0-.004-.006-.434-.22-.85-.27-.518-.754-.78-1.433-.78h-2.37c-2.164 0-3.563-.982-3.563-2.505 0-.188.152-.34.34-.34zm13.485 13.412l.377-.047a45.586 45.586 0 01-6.245.426h-.135c-1.954 0-3.923-.127-5.863-.375l.001 3.686c0 3.88 1.997 5.846 5.933 5.846 2.13 0 3.623-.46 4.565-1.409.92-.927 1.368-2.38 1.368-4.44v-3.687zm-5.932-7.483c-3.936 0-5.933 1.967-5.933 5.846v.958l.587.075c1.769.207 3.561.308 5.34.308h.066c1.958 0 3.932-.129 5.874-.382l-.001-.96c-.004-3.878-2-5.845-5.933-5.845zm0 1.664c.188 0 .34.151.34.34v3.553a.343.343 0 01-.34.339.339.339 0 01-.34-.34V7.95c0-.189.152-.34.34-.34z" fill="#5CB615" fill-rule="nonzero"/></svg>
